X:1
T:He Never Will Forsake Me
T:He Never Will Forsake Me
T:William James Kirkpatrick
T:Jesse P. Tompkins, 1898
T:Public Domain Courtesy of the Cyber Hymnal™
T:Public Domain Courtesy of the Cyber Hymnal™
C:William James Kirkpatrick
Z:Public Domain
Z:Courtesy of the Cyber Hymnal™
%%score ( 1 2 ) ( 3 4 )
L:1/8
Q:1/4=96
M:4/4
K:G
V:1 treble 
V:2 treble 
V:3 bass 
V:4 bass 
V:1
 [B,D]2 [B,G][CA] [DB]3 [CA] | [B,G][CA][DB][Ec] [DB]2 [DA]2 | D2 [DF][DG] [DA]3 [DG] | %3
w: 1.~Je- sus is mine, He|nev- er will for- sake me;|Je- sus is mine, no|
w: 2~Je- sus is mine, He|nev- er will de- ceive me;|Je- sus is mine, His|
w: 3.~Je- sus is mine, He|nev- er will de- sert me;|Je- sus is mine, no|
w: 4.~Je- sus is mine, He|nev- er will re- ject me;|Je- sus is mine, His|
 [DF][Dc][FB][FA] [DA]2 !fermata![DG][Dd] | [Dd][GB][GB][DA] [DG]3 [B,G] | %5
w: e- vil can o’er- take me; I|seek His kind- ly face, I|
w: words shall nev- er grieve me; I|know His love is true, And|
w: grief can ev- er hurt me; For|on His throb- bing breast I|
w: blood will e’er pro- tect me; And|when be- fore the throne, I|
 [DB][CA][B,G][CE] [CE]2 (GF) | .[CE]2 [Ec]2 [DB][CA][B,G][DB] | [DA]4 [DG]4 | %8
w: trust Him for His grace; O *|no, He nev- er will for-|sake me.|
w: what He says, He’ll do; O *|no, He nev- er will de-|ceive me.|
w: can most sweet- ly rest; O *|no, He nev- er will de-|sert me.|
w: shall not stand a- lone, O *|no, He nev- er will re-|ject me.|
 [Gd]2 [GB]2 [Gd]2 z [Ge] | [Gd][Dc][DB][Dc] [Dd]2 [DB]2 | [GB]2 [DG]2 [GB]2 z [Gc] | %11
w: No, no, no, He|nev- er will for- sake me;|No, no, no, no|
w: No, no, no, He|nev- er will de- ceive me;|No, no, no, His|
w: No, no, no, He|nev- er will de- sert me;|No, no, no, no|
w: No, no, no, He|nev- er will re- ject me;|No, no, no, His|
 [GB][DA][DG][GB] [GB]2 !fermata![FA]D | D[DG][DG][DA] [GB]3 [DG] | %13
w: e- vil can o’er- take me; His|love will ev- er last, Till|
w: words shall nev- er grieve me; I|know His love is true, And|
w: grief can ev- er hurt me; For|on His throb- bing breast I|
w: blood will e’er pro- tect me; And|when be- fore His throne, I|
 [GB][GB][GB][Fc] !fermata![Gd]2 !fermata![Ge]2 | [Gd]2 [GB]2 [GB][DA][DG][GB] | A4 [DG]4 |] x8 |] %17
w: all of earth is past; O|no, He nev- er will for-|sake me.||
w: what He says, He’ll do; O|no, He nev- er will de-|ceive me.||
w: can most sweet- ly rest; O|no, He nev- er will de-|sert me.||
w: shall not stand a- lone; No,|no, He nev- er will re-|ject me.||
V:2
 x8 | x8 | D2 x6 | x8 | x8 | x6 D2 | x8 | x8 | x8 | x8 | x8 | x7 D | D x7 | x8 | x8 | (F2 D2) x4 |] %16
 x8 |] %17
V:3
 [G,,G,]2 [G,,G,][G,,G,] [G,,G,]3 [G,,D,] | [G,,D,][G,,D,][G,,G,][G,,G,] [D,G,]2 [D,F,]2 | %2
 [D,F,]2 [D,A,][D,B,] [D,C]3 [D,B,] | [D,A,][D,A,][D,D][D,C] [G,C]2 !fermata![G,B,][G,B,] | %4
 [G,B,][G,D][G,D][G,C] [G,B,]3 [G,,G,] | [G,,G,][G,,G,][G,,G,][G,,G,] [G,,G,]2 [B,,G,]2 | %6
 [C,G,]2 [C,G,]2 [D,G,][D,G,][D,G,][D,G,] | (F,2 C2) [G,,B,]4 | [G,B,]2 [G,D]2 [G,B,]2 z [G,C] | %9
 [G,B,][G,A,]G, x5 | [G,A,] [G,B,]2 G,2 x3 | [G,,D]2 [G,,B,]2 [G,,D]2 z [G,,E] | %12
 [G,,D][G,,C][G,,B,][G,,D] [D,D]2 !fermata![D,D][D,C] | [G,B,][G,B,][G,B,][G,C] [G,D]3 [G,B,] | %14
 [G,D][G,D][G,D][A,D] !fermata![B,D]2 !fermata![C,C]2 | [D,B,]2 [D,D]2 [D,D][D,C][D,B,][D,D] |] %16
 [D,C]4 [G,,B,]4 |] %17
V:4
 x8 | x8 | x8 | x8 | x8 | x8 | x8 | D,4 x4 | x8 | x2 G, x5 | x3 G,2 x3 | x8 | x8 | x8 | x8 | x8 |] %16
 x8 |] %17

